Papirus/16x16/actions/path-effect-parameter-next.svg

<?xml version="1.0" encoding="UTF-8" standalone="no"?>
<svg xmlns:osb="http://www.openswatchbook.org/uri/2009/osb" xmlns:dc="http://purl.org/dc/elements/1.1/" xmlns:cc="http://creativecommons.org/ns#" xmlns:rdf="http://www.w3.org/1999/02/22-rdf-syntax-ns#" xmlns:svg="http://www.w3.org/2000/svg" xmlns="http://www.w3.org/2000/svg" width="16" height="16" viewBox="0 0 16 16" id="svg6394" version="1.1">
    <defs id="defs6396">
        <linearGradient id="linearGradient19282" osb:paint="solid" gradientTransform="matrix(-0.40801424,2.7359005,1.4465395,0.18903615,2588.4859,828.26016)">
            <stop style="stop-color:#000000;stop-opacity:1;" offset="0" id="stop19284"/>
        </linearGradient>
        <linearGradient id="linearGradient19282-3" osb:paint="solid" gradientTransform="matrix(-2.7359006,0.40801425,-0.18903616,-1.4465395,-804.26018,-2564.486)">
            <stop style="stop-color:#000000;stop-opacity:1;" offset="0" id="stop19284-6"/>
        </linearGradient>
        <linearGradient gradientTransform="matrix(-2.73658,0.4081035,-0.1890831,-1.446856,-1254.4599,-3933.7766)" osb:paint="solid" id="linearGradient19282-36">
            <stop id="stop19284-7" offset="0" style="stop-color:#666666;stop-opacity:1;"/>
        </linearGradient>
    </defs>
    <metadata id="metadata6399">
        <rdf:RDF>
            <cc:Work rdf:about="">
                <dc:format>
                    image/svg+xml
                </dc:format>
                <dc:type rdf:resource="http://purl.org/dc/dcmitype/StillImage"/>
                <dc:title/>
            </cc:Work>
        </rdf:RDF>
    </metadata>
    <path id="rect7537" d="m 14.5,0.9999999 a 1.5,1.5 0 0 0 -1.43945,1.083984 C 7.72992,3.1856789 3.01658,6.7417929 2.06641,13.066406 A 1.5,1.5 0 0 0 1,14.5 1.5,1.5 0 0 0 2.5,16 1.5,1.5 0 0 0 4,14.5 1.5,1.5 0 0 0 3.07031,13.113281 C 3.98021,7.3244179 8.1834,4.1525709 13.125,3.0937499 a 1.5,1.5 0 0 0 1.375,0.90625 1.5,1.5 0 0 0 1.5,-1.5 1.5,1.5 0 0 0 -1.5,-1.5 z m -5.5,6 L 9,11.5 9,16 12.5,13.75 15,12.142578 15,16 l 1,0 0,-4.5 0,-4.5000001 -1,0 0,3.8574221 -2.5,-1.6074221 -3.5,-2.25 z" style="opacity:0.5;fill:#000000;fill-opacity:1"/>
</svg>

<?xml version="1.0" encoding="UTF-8" standalone="no"?>
<svg id="svg6394" xmlns:rdf="http://www.w3.org/1999/02/22-rdf-syntax-ns#" xmlns="http://www.w3.org/2000/svg" xmlns:osb="http://www.openswatchbook.org/uri/2009/osb" height="16" width="16" version="1.1" xmlns:cc="http://creativecommons.org/ns#" viewBox="0 0 16 16" xmlns:dc="http://purl.org/dc/elements/1.1/">
 <metadata id="metadata6399">
  <rdf:RDF>
   <cc:Work rdf:about="">
    <dc:format>image/svg+xml</dc:format>
    <dc:type rdf:resource="http://purl.org/dc/dcmitype/StillImage"/>
    <dc:title/>
   </cc:Work>
  </rdf:RDF>
 </metadata>
 <path id="rect7537" opacity=".5" d="m14.5 1a1.5 1.5 0 0 0 -1.4394 1.084c-5.3311 1.1017-10.044 4.6578-10.995 10.982a1.5 1.5 0 0 0 -1.066 1.434 1.5 1.5 0 0 0 1.5 1.5 1.5 1.5 0 0 0 1.5 -1.5 1.5 1.5 0 0 0 -0.9297 -1.387c0.9099-5.7886 5.1131-8.9604 10.055-10.019a1.5 1.5 0 0 0 1.375 0.90625 1.5 1.5 0 0 0 1.5 -1.5 1.5 1.5 0 0 0 -1.5 -1.5zm-5.5 6v4.5 4.5l3.5-2.25 2.5-1.607v3.857h1v-4.5-4.5h-1v3.8574l-2.5-1.6074-3.5-2.25z"/>
</svg>
